;Paste the following into Prusa Slicer under Printers->Custom G-code tool change G-code
;Mechanical MMU Generated on 2024-09-01 20:02:47 by conno;
;
;
{if previous_extruder != -1};exclude initial tool change
;
G1 E-1 Z{toolchange_z+10} F2100;go up and retract a little
;
;start load next pusher
;
{if previous_extruder == 1};if pusher 1 needs unloaded
G1 X0;go to center
G1 Z-15;engage with pusher
;start interpolate 2 revolutions of a XZ circle with 20 points centered at X0 Z0
G1 X14.27 Z14.27 E14.27
G1 X12.14 Z12.14 E12.14
G1 X8.82 Z8.82 E8.82
G1 X4.64 Z4.64 E4.64
G1 X0.00 Z0.00 E0.00
G1 X-4.64 Z-4.64 E-4.64
G1 X-8.82 Z-8.82 E-8.82
G1 X-12.14 Z-12.14 E-12.14
G1 X-14.27 Z-14.27 E-14.27
G1 X-15.00 Z-15.00 E-15.00
G1 X-14.27 Z-14.27 E-14.27
G1 X-12.14 Z-12.14 E-12.14
G1 X-8.82 Z-8.82 E-8.82
G1 X-4.64 Z-4.64 E-4.64
G1 X-0.00 Z-0.00 E-0.00
G1 X4.64 Z4.64 E4.64
G1 X8.82 Z8.82 E8.82
G1 X12.14 Z12.14 E12.14
G1 X14.27 Z14.27 E14.27
G1 X15.00 Z15.00 E15.00
G1 X14.27 Z14.27 E14.27
G1 X12.14 Z12.14 E12.14
G1 X8.82 Z8.82 E8.82
G1 X4.64 Z4.64 E4.64
G1 X0.00 Z0.00 E0.00
G1 X-4.64 Z-4.64 E-4.64
G1 X-8.82 Z-8.82 E-8.82
G1 X-12.14 Z-12.14 E-12.14
G1 X-14.27 Z-14.27 E-14.27
G1 X-15.00 Z-15.00 E-15.00
G1 X-14.27 Z-14.27 E-14.27
G1 X-12.14 Z-12.14 E-12.14
G1 X-8.82 Z-8.82 E-8.82
G1 X-4.64 Z-4.64 E-4.64
G1 X-0.00 Z-0.00 E-0.00
G1 X4.64 Z4.64 E4.64
G1 X8.82 Z8.82 E8.82
G1 X12.14 Z12.14 E12.14
G1 X14.27 Z14.27 E14.27
G1 X15.00 Z15.00 E15.00
;end interpolate 2 revolutions of a XZ circle with 20 points centered at X0 Z0
{endif};endif unload 1 pusher
{if previous_extruder == 2};if pusher 2 needs unloaded
G1 X45;go to center
G1 Z-15;engage with pusher
;start interpolate 2 revolutions of a XZ circle with 20 points centered at X45 Z0
G1 X59.27 Z59.27 E59.27
G1 X57.14 Z57.14 E57.14
G1 X53.82 Z53.82 E53.82
G1 X49.64 Z49.64 E49.64
G1 X45.00 Z45.00 E45.00
G1 X40.36 Z40.36 E40.36
G1 X36.18 Z36.18 E36.18
G1 X32.86 Z32.86 E32.86
G1 X30.73 Z30.73 E30.73
G1 X30.00 Z30.00 E30.00
G1 X30.73 Z30.73 E30.73
G1 X32.86 Z32.86 E32.86
G1 X36.18 Z36.18 E36.18
G1 X40.36 Z40.36 E40.36
G1 X45.00 Z45.00 E45.00
G1 X49.64 Z49.64 E49.64
G1 X53.82 Z53.82 E53.82
G1 X57.14 Z57.14 E57.14
G1 X59.27 Z59.27 E59.27
G1 X60.00 Z60.00 E60.00
G1 X59.27 Z59.27 E59.27
G1 X57.14 Z57.14 E57.14
G1 X53.82 Z53.82 E53.82
G1 X49.64 Z49.64 E49.64
G1 X45.00 Z45.00 E45.00
G1 X40.36 Z40.36 E40.36
G1 X36.18 Z36.18 E36.18
G1 X32.86 Z32.86 E32.86
G1 X30.73 Z30.73 E30.73
G1 X30.00 Z30.00 E30.00
G1 X30.73 Z30.73 E30.73
G1 X32.86 Z32.86 E32.86
G1 X36.18 Z36.18 E36.18
G1 X40.36 Z40.36 E40.36
G1 X45.00 Z45.00 E45.00
G1 X49.64 Z49.64 E49.64
G1 X53.82 Z53.82 E53.82
G1 X57.14 Z57.14 E57.14
G1 X59.27 Z59.27 E59.27
G1 X60.00 Z60.00 E60.00
;end interpolate 2 revolutions of a XZ circle with 20 points centered at X45 Z0
{endif};endif unload 2 pusher
{if previous_extruder == 3};if pusher 3 needs unloaded
G1 X90;go to center
G1 Z-15;engage with pusher
;start interpolate 2 revolutions of a XZ circle with 20 points centered at X90 Z0
G1 X104.27 Z104.27 E104.27
G1 X102.14 Z102.14 E102.14
G1 X98.82 Z98.82 E98.82
G1 X94.64 Z94.64 E94.64
G1 X90.00 Z90.00 E90.00
G1 X85.36 Z85.36 E85.36
G1 X81.18 Z81.18 E81.18
G1 X77.86 Z77.86 E77.86
G1 X75.73 Z75.73 E75.73
G1 X75.00 Z75.00 E75.00
G1 X75.73 Z75.73 E75.73
G1 X77.86 Z77.86 E77.86
G1 X81.18 Z81.18 E81.18
G1 X85.36 Z85.36 E85.36
G1 X90.00 Z90.00 E90.00
G1 X94.64 Z94.64 E94.64
G1 X98.82 Z98.82 E98.82
G1 X102.14 Z102.14 E102.14
G1 X104.27 Z104.27 E104.27
G1 X105.00 Z105.00 E105.00
G1 X104.27 Z104.27 E104.27
G1 X102.14 Z102.14 E102.14
G1 X98.82 Z98.82 E98.82
G1 X94.64 Z94.64 E94.64
G1 X90.00 Z90.00 E90.00
G1 X85.36 Z85.36 E85.36
G1 X81.18 Z81.18 E81.18
G1 X77.86 Z77.86 E77.86
G1 X75.73 Z75.73 E75.73
G1 X75.00 Z75.00 E75.00
G1 X75.73 Z75.73 E75.73
G1 X77.86 Z77.86 E77.86
G1 X81.18 Z81.18 E81.18
G1 X85.36 Z85.36 E85.36
G1 X90.00 Z90.00 E90.00
G1 X94.64 Z94.64 E94.64
G1 X98.82 Z98.82 E98.82
G1 X102.14 Z102.14 E102.14
G1 X104.27 Z104.27 E104.27
G1 X105.00 Z105.00 E105.00
;end interpolate 2 revolutions of a XZ circle with 20 points centered at X90 Z0
{endif};endif unload 3 pusher
{if previous_extruder == 4};if pusher 4 needs unloaded
G1 X135;go to center
G1 Z-15;engage with pusher
;start interpolate 2 revolutions of a XZ circle with 20 points centered at X135 Z0
G1 X149.27 Z149.27 E149.27
G1 X147.14 Z147.14 E147.14
G1 X143.82 Z143.82 E143.82
G1 X139.64 Z139.64 E139.64
G1 X135.00 Z135.00 E135.00
G1 X130.36 Z130.36 E130.36
G1 X126.18 Z126.18 E126.18
G1 X122.86 Z122.86 E122.86
G1 X120.73 Z120.73 E120.73
G1 X120.00 Z120.00 E120.00
G1 X120.73 Z120.73 E120.73
G1 X122.86 Z122.86 E122.86
G1 X126.18 Z126.18 E126.18
G1 X130.36 Z130.36 E130.36
G1 X135.00 Z135.00 E135.00
G1 X139.64 Z139.64 E139.64
G1 X143.82 Z143.82 E143.82
G1 X147.14 Z147.14 E147.14
G1 X149.27 Z149.27 E149.27
G1 X150.00 Z150.00 E150.00
G1 X149.27 Z149.27 E149.27
G1 X147.14 Z147.14 E147.14
G1 X143.82 Z143.82 E143.82
G1 X139.64 Z139.64 E139.64
G1 X135.00 Z135.00 E135.00
G1 X130.36 Z130.36 E130.36
G1 X126.18 Z126.18 E126.18
G1 X122.86 Z122.86 E122.86
G1 X120.73 Z120.73 E120.73
G1 X120.00 Z120.00 E120.00
G1 X120.73 Z120.73 E120.73
G1 X122.86 Z122.86 E122.86
G1 X126.18 Z126.18 E126.18
G1 X130.36 Z130.36 E130.36
G1 X135.00 Z135.00 E135.00
G1 X139.64 Z139.64 E139.64
G1 X143.82 Z143.82 E143.82
G1 X147.14 Z147.14 E147.14
G1 X149.27 Z149.27 E149.27
G1 X150.00 Z150.00 E150.00
;end interpolate 2 revolutions of a XZ circle with 20 points centered at X135 Z0
{endif};endif unload 4 pusher
;end unload previous pusherG1 Z-25;go back down to clearance z
;
;start load next pusher
;
{if next_extruder == 1};if pusher 1 needs loaded
G1 X0;go x center for pusher 1
G1 Z-15;engage with pusher
;start interpolate 3 revolutions of a XZ circle with 20 points centered at X0 Z0
G1 X14.27 Z14.27 E14.27
G1 X12.14 Z12.14 E12.14
G1 X8.82 Z8.82 E8.82
G1 X4.64 Z4.64 E4.64
G1 X0.00 Z0.00 E0.00
G1 X-4.64 Z-4.64 E-4.64
G1 X-8.82 Z-8.82 E-8.82
G1 X-12.14 Z-12.14 E-12.14
G1 X-14.27 Z-14.27 E-14.27
G1 X-15.00 Z-15.00 E-15.00
G1 X-14.27 Z-14.27 E-14.27
G1 X-12.14 Z-12.14 E-12.14
G1 X-8.82 Z-8.82 E-8.82
G1 X-4.64 Z-4.64 E-4.64
G1 X-0.00 Z-0.00 E-0.00
G1 X4.64 Z4.64 E4.64
G1 X8.82 Z8.82 E8.82
G1 X12.14 Z12.14 E12.14
G1 X14.27 Z14.27 E14.27
G1 X15.00 Z15.00 E15.00
G1 X14.27 Z14.27 E14.27
G1 X12.14 Z12.14 E12.14
G1 X8.82 Z8.82 E8.82
G1 X4.64 Z4.64 E4.64
G1 X0.00 Z0.00 E0.00
G1 X-4.64 Z-4.64 E-4.64
G1 X-8.82 Z-8.82 E-8.82
G1 X-12.14 Z-12.14 E-12.14
G1 X-14.27 Z-14.27 E-14.27
G1 X-15.00 Z-15.00 E-15.00
G1 X-14.27 Z-14.27 E-14.27
G1 X-12.14 Z-12.14 E-12.14
G1 X-8.82 Z-8.82 E-8.82
G1 X-4.64 Z-4.64 E-4.64
G1 X-0.00 Z-0.00 E-0.00
G1 X4.64 Z4.64 E4.64
G1 X8.82 Z8.82 E8.82
G1 X12.14 Z12.14 E12.14
G1 X14.27 Z14.27 E14.27
G1 X15.00 Z15.00 E15.00
G1 X14.27 Z14.27 E14.27
G1 X12.14 Z12.14 E12.14
G1 X8.82 Z8.82 E8.82
G1 X4.64 Z4.64 E4.64
G1 X0.00 Z0.00 E0.00
G1 X-4.64 Z-4.64 E-4.64
G1 X-8.82 Z-8.82 E-8.82
G1 X-12.14 Z-12.14 E-12.14
G1 X-14.27 Z-14.27 E-14.27
G1 X-15.00 Z-15.00 E-15.00
G1 X-14.27 Z-14.27 E-14.27
G1 X-12.14 Z-12.14 E-12.14
G1 X-8.82 Z-8.82 E-8.82
G1 X-4.64 Z-4.64 E-4.64
G1 X-0.00 Z-0.00 E-0.00
G1 X4.64 Z4.64 E4.64
G1 X8.82 Z8.82 E8.82
G1 X12.14 Z12.14 E12.14
G1 X14.27 Z14.27 E14.27
G1 X15.00 Z15.00 E15.00
;end interpolate 3 revolutions of a XZ circle with 20 points centered at X0 Z0
{endif};endif load 1 pusher
{if next_extruder == 2};if pusher 2 needs loaded
G1 X45;go x center for pusher 2
G1 Z-15;engage with pusher
;start interpolate 3 revolutions of a XZ circle with 20 points centered at X45 Z0
G1 X59.27 Z59.27 E59.27
G1 X57.14 Z57.14 E57.14
G1 X53.82 Z53.82 E53.82
G1 X49.64 Z49.64 E49.64
G1 X45.00 Z45.00 E45.00
G1 X40.36 Z40.36 E40.36
G1 X36.18 Z36.18 E36.18
G1 X32.86 Z32.86 E32.86
G1 X30.73 Z30.73 E30.73
G1 X30.00 Z30.00 E30.00
G1 X30.73 Z30.73 E30.73
G1 X32.86 Z32.86 E32.86
G1 X36.18 Z36.18 E36.18
G1 X40.36 Z40.36 E40.36
G1 X45.00 Z45.00 E45.00
G1 X49.64 Z49.64 E49.64
G1 X53.82 Z53.82 E53.82
G1 X57.14 Z57.14 E57.14
G1 X59.27 Z59.27 E59.27
G1 X60.00 Z60.00 E60.00
G1 X59.27 Z59.27 E59.27
G1 X57.14 Z57.14 E57.14
G1 X53.82 Z53.82 E53.82
G1 X49.64 Z49.64 E49.64
G1 X45.00 Z45.00 E45.00
G1 X40.36 Z40.36 E40.36
G1 X36.18 Z36.18 E36.18
G1 X32.86 Z32.86 E32.86
G1 X30.73 Z30.73 E30.73
G1 X30.00 Z30.00 E30.00
G1 X30.73 Z30.73 E30.73
G1 X32.86 Z32.86 E32.86
G1 X36.18 Z36.18 E36.18
G1 X40.36 Z40.36 E40.36
G1 X45.00 Z45.00 E45.00
G1 X49.64 Z49.64 E49.64
G1 X53.82 Z53.82 E53.82
G1 X57.14 Z57.14 E57.14
G1 X59.27 Z59.27 E59.27
G1 X60.00 Z60.00 E60.00
G1 X59.27 Z59.27 E59.27
G1 X57.14 Z57.14 E57.14
G1 X53.82 Z53.82 E53.82
G1 X49.64 Z49.64 E49.64
G1 X45.00 Z45.00 E45.00
G1 X40.36 Z40.36 E40.36
G1 X36.18 Z36.18 E36.18
G1 X32.86 Z32.86 E32.86
G1 X30.73 Z30.73 E30.73
G1 X30.00 Z30.00 E30.00
G1 X30.73 Z30.73 E30.73
G1 X32.86 Z32.86 E32.86
G1 X36.18 Z36.18 E36.18
G1 X40.36 Z40.36 E40.36
G1 X45.00 Z45.00 E45.00
G1 X49.64 Z49.64 E49.64
G1 X53.82 Z53.82 E53.82
G1 X57.14 Z57.14 E57.14
G1 X59.27 Z59.27 E59.27
G1 X60.00 Z60.00 E60.00
;end interpolate 3 revolutions of a XZ circle with 20 points centered at X45 Z0
{endif};endif load 2 pusher
{if next_extruder == 3};if pusher 3 needs loaded
G1 X90;go x center for pusher 3
G1 Z-15;engage with pusher
;start interpolate 3 revolutions of a XZ circle with 20 points centered at X90 Z0
G1 X104.27 Z104.27 E104.27
G1 X102.14 Z102.14 E102.14
G1 X98.82 Z98.82 E98.82
G1 X94.64 Z94.64 E94.64
G1 X90.00 Z90.00 E90.00
G1 X85.36 Z85.36 E85.36
G1 X81.18 Z81.18 E81.18
G1 X77.86 Z77.86 E77.86
G1 X75.73 Z75.73 E75.73
G1 X75.00 Z75.00 E75.00
G1 X75.73 Z75.73 E75.73
G1 X77.86 Z77.86 E77.86
G1 X81.18 Z81.18 E81.18
G1 X85.36 Z85.36 E85.36
G1 X90.00 Z90.00 E90.00
G1 X94.64 Z94.64 E94.64
G1 X98.82 Z98.82 E98.82
G1 X102.14 Z102.14 E102.14
G1 X104.27 Z104.27 E104.27
G1 X105.00 Z105.00 E105.00
G1 X104.27 Z104.27 E104.27
G1 X102.14 Z102.14 E102.14
G1 X98.82 Z98.82 E98.82
G1 X94.64 Z94.64 E94.64
G1 X90.00 Z90.00 E90.00
G1 X85.36 Z85.36 E85.36
G1 X81.18 Z81.18 E81.18
G1 X77.86 Z77.86 E77.86
G1 X75.73 Z75.73 E75.73
G1 X75.00 Z75.00 E75.00
G1 X75.73 Z75.73 E75.73
G1 X77.86 Z77.86 E77.86
G1 X81.18 Z81.18 E81.18
G1 X85.36 Z85.36 E85.36
G1 X90.00 Z90.00 E90.00
G1 X94.64 Z94.64 E94.64
G1 X98.82 Z98.82 E98.82
G1 X102.14 Z102.14 E102.14
G1 X104.27 Z104.27 E104.27
G1 X105.00 Z105.00 E105.00
G1 X104.27 Z104.27 E104.27
G1 X102.14 Z102.14 E102.14
G1 X98.82 Z98.82 E98.82
G1 X94.64 Z94.64 E94.64
G1 X90.00 Z90.00 E90.00
G1 X85.36 Z85.36 E85.36
G1 X81.18 Z81.18 E81.18
G1 X77.86 Z77.86 E77.86
G1 X75.73 Z75.73 E75.73
G1 X75.00 Z75.00 E75.00
G1 X75.73 Z75.73 E75.73
G1 X77.86 Z77.86 E77.86
G1 X81.18 Z81.18 E81.18
G1 X85.36 Z85.36 E85.36
G1 X90.00 Z90.00 E90.00
G1 X94.64 Z94.64 E94.64
G1 X98.82 Z98.82 E98.82
G1 X102.14 Z102.14 E102.14
G1 X104.27 Z104.27 E104.27
G1 X105.00 Z105.00 E105.00
;end interpolate 3 revolutions of a XZ circle with 20 points centered at X90 Z0
{endif};endif load 3 pusher
{if next_extruder == 4};if pusher 4 needs loaded
G1 X135;go x center for pusher 4
G1 Z-15;engage with pusher
;start interpolate 3 revolutions of a XZ circle with 20 points centered at X135 Z0
G1 X149.27 Z149.27 E149.27
G1 X147.14 Z147.14 E147.14
G1 X143.82 Z143.82 E143.82
G1 X139.64 Z139.64 E139.64
G1 X135.00 Z135.00 E135.00
G1 X130.36 Z130.36 E130.36
G1 X126.18 Z126.18 E126.18
G1 X122.86 Z122.86 E122.86
G1 X120.73 Z120.73 E120.73
G1 X120.00 Z120.00 E120.00
G1 X120.73 Z120.73 E120.73
G1 X122.86 Z122.86 E122.86
G1 X126.18 Z126.18 E126.18
G1 X130.36 Z130.36 E130.36
G1 X135.00 Z135.00 E135.00
G1 X139.64 Z139.64 E139.64
G1 X143.82 Z143.82 E143.82
G1 X147.14 Z147.14 E147.14
G1 X149.27 Z149.27 E149.27
G1 X150.00 Z150.00 E150.00
G1 X149.27 Z149.27 E149.27
G1 X147.14 Z147.14 E147.14
G1 X143.82 Z143.82 E143.82
G1 X139.64 Z139.64 E139.64
G1 X135.00 Z135.00 E135.00
G1 X130.36 Z130.36 E130.36
G1 X126.18 Z126.18 E126.18
G1 X122.86 Z122.86 E122.86
G1 X120.73 Z120.73 E120.73
G1 X120.00 Z120.00 E120.00
G1 X120.73 Z120.73 E120.73
G1 X122.86 Z122.86 E122.86
G1 X126.18 Z126.18 E126.18
G1 X130.36 Z130.36 E130.36
G1 X135.00 Z135.00 E135.00
G1 X139.64 Z139.64 E139.64
G1 X143.82 Z143.82 E143.82
G1 X147.14 Z147.14 E147.14
G1 X149.27 Z149.27 E149.27
G1 X150.00 Z150.00 E150.00
G1 X149.27 Z149.27 E149.27
G1 X147.14 Z147.14 E147.14
G1 X143.82 Z143.82 E143.82
G1 X139.64 Z139.64 E139.64
G1 X135.00 Z135.00 E135.00
G1 X130.36 Z130.36 E130.36
G1 X126.18 Z126.18 E126.18
G1 X122.86 Z122.86 E122.86
G1 X120.73 Z120.73 E120.73
G1 X120.00 Z120.00 E120.00
G1 X120.73 Z120.73 E120.73
G1 X122.86 Z122.86 E122.86
G1 X126.18 Z126.18 E126.18
G1 X130.36 Z130.36 E130.36
G1 X135.00 Z135.00 E135.00
G1 X139.64 Z139.64 E139.64
G1 X143.82 Z143.82 E143.82
G1 X147.14 Z147.14 E147.14
G1 X149.27 Z149.27 E149.27
G1 X150.00 Z150.00 E150.00
;end interpolate 3 revolutions of a XZ circle with 20 points centered at X135 Z0
{endif};endif load 4 pusher
;end load next pusher
G1 Z{toolchange_z};go back down to layer and resume
{endif};endif exclude initial tool change
